svgs/sharp-thin/building.svg

<svg xmlns="http://www.w3.org/2000/svg" viewBox="0 0 384 512"><!--! Font Awesome Pro 6.6.0 by @fontawesome - https://fontawesome.com License - https://fontawesome.com/license (Commercial License) Copyright 2024 Fonticons, Inc. --><path d="M16 16l0 480 128 0 0-112 0-16 16 0 64 0 16 0 0 16 0 112 128 0 0-480L16 16zM160 496l64 0 0-112-64 0 0 112zm-16 16L16 512 0 512l0-16L0 16 0 0 16 0 368 0l16 0 0 16 0 480 0 16-16 0-128 0-16 0-64 0-16 0zM80 232l64 0 8 0 0 8 0 64 0 8-8 0-64 0-8 0 0-8 0-64 0-8 8 0zm8 64l48 0 0-48-48 0 0 48zm144-64l8 0 64 0 8 0 0 8 0 64 0 8-8 0-64 0-8 0 0-8 0-64 0-8zm16 16l0 48 48 0 0-48-48 0zM80 104l64 0 8 0 0 8 0 64 0 8-8 0-64 0-8 0 0-8 0-64 0-8 8 0zm8 64l48 0 0-48-48 0 0 48zm144-64l8 0 64 0 8 0 0 8 0 64 0 8-8 0-64 0-8 0 0-8 0-64 0-8zm16 16l0 48 48 0 0-48-48 0z"/></svg>

<svg xmlns="http://www.w3.org/2000/svg" viewBox="0 0 384 512"><!--! Font Awesome Pro 6.5.2 by @fontawesome - https://fontawesome.com License - https://fontawesome.com/license (Commercial License) Copyright 2024 Fonticons, Inc. --><path d="M16 16V496H144V384 368h16 64 16v16V496H368V16H16zM160 496h64V384H160V496zm-16 16H16 0V496 16 0H16 368h16V16 496v16H368 240 224 160 144zM80 232h64 8v8 64 8h-8H80 72v-8V240v-8h8zm8 64h48V248H88v48zm144-64h8 64 8v8 64 8h-8H240h-8v-8V240v-8zm16 16v48h48V248H248zM80 104h64 8v8 64 8h-8H80 72v-8V112v-8h8zm8 64h48V120H88v48zm144-64h8 64 8v8 64 8h-8H240h-8v-8V112v-8zm16 16v48h48V120H248z"/></svg>
